X: 10169
T: Dinni's
R: jig
M: 6/8
K: Dmajor
|:E2A ABA|E2A ABA|e2A ABA|G3 F2G|
E2A ABA|E2A ABA|efe dcB|A3 A3:|
|:efe efe|e2B Bcd|e2A ABA|G3 F2G|
E2A ABA|E2A ABA|efe dcB|A3 A3:|

